src/lib/packages/icons/src/assets/filled/exchange-horizontal-square.svg

<svg width="24" height="24" viewBox="0 0 24 24" fill="none" xmlns="http://www.w3.org/2000/svg">
<path d="M17.625 3H6.375C4.125 3 3 4.125 3 6.375V17.625C3 19.875 4.125 21 6.375 21H17.625C19.875 21 21 19.875 21 17.625V6.375C21 4.125 19.875 3 17.625 3ZM6.80688 10.939C6.69188 10.659 6.75497 10.3361 6.96997 10.1221L9.66992 7.42212C9.96292 7.12912 10.438 7.12912 10.731 7.42212C11.024 7.71512 11.024 8.18991 10.731 8.48291L9.31104 9.90308H14.7009C15.1149 9.90308 15.4509 10.2391 15.4509 10.6531C15.4509 11.0671 15.1149 11.4031 14.7009 11.4031H7.50098C7.19598 11.4021 6.92288 11.219 6.80688 10.939ZM17.03 13.8821L14.3301 16.582C14.1841 16.728 13.992 16.802 13.8 16.802C13.608 16.802 13.416 16.729 13.27 16.582C12.977 16.289 12.977 15.814 13.27 15.521L14.6899 14.1021H9.30005C8.88605 14.1021 8.55005 13.7661 8.55005 13.3521C8.55005 12.9381 8.88605 12.6021 9.30005 12.6021H16.5C16.804 12.6021 17.0771 12.7849 17.1931 13.0649C17.3091 13.3449 17.245 13.6681 17.03 13.8821Z" fill="currentColor"/>
</svg>

<svg xmlns="http://www.w3.org/2000/svg" width="24" height="24" fill="none"><path fill="currentColor" d="M17.625 3H6.375C4.125 3 3 4.125 3 6.375v11.25C3 19.875 4.125 21 6.375 21h11.25C19.875 21 21 19.875 21 17.625V6.375C21 4.125 19.875 3 17.625 3ZM6.807 10.939a.75.75 0 0 1 .163-.817l2.7-2.7a.75.75 0 0 1 1.061 1.06l-1.42 1.421h5.39a.75.75 0 0 1 0 1.5H7.5a.753.753 0 0 1-.694-.464Zm10.223 2.943-2.7 2.7a.748.748 0 0 1-1.06 0 .75.75 0 0 1 0-1.061l1.42-1.419H9.3a.75.75 0 0 1 0-1.5h7.2a.75.75 0 0 1 .53 1.28Z"/></svg>
